X:17
T:Jack Lintel
Z:robin.beech@mcgill.ca
S:Mads Kjøller-Henningsen
M:3/2
L:1/4
K:Amin
cAAE c2 | cA2c B/c/d/B/ | cAAE c2 | BGGA B/c/d/B/ ::
c2df e2 | cA2c B/c/d/B/ |c2dfec| BGGA B/c/d/B/ ::
egcegc|egceBG|egcegc| BGGA B/c/d/B/ :|
